X: 7
T: Pigtown Fling, The
Z: Aberfoyle Whistler
S: https://thesession.org/tunes/80#setting49267
R: reel
M: 4/4
L: 1/8
K: Gmaj
|:G2 ge d2 ed|B2 ge dBAB|Gdge d2 ed|1 BBAc BGEF:|2 BBAc BGE2||
|:Beed ~e3 g|fgaf gfed|Beed efg/f/e|1 fgaf ~g3 A:|2 fgaf g3 G||

